X:1
T:Hosianna dem Sohne Davids
T:Bartholomäus Gesius (c. 1560-1613)
T:Mathäus 21,9
T:Hosianna dem Sohne Davids
T:Copyright © 2013 by the Choral Public Domain Library (http://www.cpdl.org) Typeset by Rufus Brodersen. Edition may be freely distributed, duplicated, performed, or recorded.
T:Copyright © 2013 by the Choral Public Domain Library (http://www.cpdl.org) Typeset by Rufus Brodersen. Edition may be freely distributed, duplicated, performed, or recorded.
T:Copyright © 2013 by the Choral Public Domain Library (http://www.cpdl.org) Typeset by Rufus Brodersen. Edition may be freely distributed, duplicated, performed, or recorded.
C:Bartholomäus Gesius
C:(c. 1560-1613)
Z:Mathäus 21,9
Z:Copyright © 2013 by the Choral Public Domain Library (http://www.cpdl.org)
Z:Typeset by Rufus Brodersen. Edition may be freely distributed, duplicated, performed, or recorded.
%%score [ 1 2 3 4 ]
L:1/8
M:4/4
K:F
V:1 treble nm="Sopran" snm="S."
V:2 treble nm="Alt" snm="A."
V:3 treble-8 transpose=-12 nm="Tenor" snm="T."
V:4 bass nm="Bass" snm="B."
V:1
 [A_e]2 d3 d d2 d2 | d2 c2 B4 | A2 d2 _e2 d2 | c8 | d4 z4 | d3 d d2 d2 | d2 c2 B4 | A2 d2 _e2 d2 | %8
w: * Ho- si- an- na,|Ho- si- an-|na dem Soh- ne|Da-|vids,|Ho- si- an- na,|Ho- si- an-|na dem Soh- ne|
 c8 |[M:6/4] d4 d2 d3 d d2 | c4 B2 d4 d2 | _e2 d2 (c2 B2) A4 | =B4 d2 d3 d d2 | c4 _B2 d4 d2 | %14
w: Da-|vids! Ge- lo- bet sei,|der da kommt im|Na- men des _ Her-|ren, ge- lo- bet sei,|der da kommt im|
 _e2 d2 (c2 B2) A4 |[M:4/4] =B4 z4 | !courtesy!_B3 B A2 d2 | c3 c A2 B2 | B2 _e2 d4 | =B4 z4 | %20
w: Na- men des _ Her-|ren.|Ho- si- an- na,|Ho- si- an- na|in der Hö-|he,|
 !courtesy!_B3 B A2 d2 | c3 c A2 B2 | B2 _e2 d4- | d4 =B4 |] %24
w: Ho- si- an- na,|Ho- si- an- na|in der Hö-|* he!|
V:2
 [CB]2 A3 A A2 B2 | B2 A2 G4 | ^F2 F2 GC =F2- | F8 | F4 z4 | A3 A B2 B2 | B2 A2 G4 | %7
w: * Ho- si- an- na,|Ho- si- an-|na dem Soh- ne Da-||vids,|Ho- si- an- na,|Ho- si- an-|
 ^F2 F2 GC =F2- | F8 |[M:6/4] F4 B2 B3 B B2 | A4 G2 F4 B2 | B2 B2 A2 (G4 ^F2) | G4 _B2 B3 B B2 | %13
w: na dem Soh- ne Da-||vids! Ge- lo- bet sei,|der da kommt im|Na- men des Her- *|ren, ge- lo- bet sei,|
 A4 G2 F4 B2 | B2 B2 A2 (G4 ^F2) |[M:4/4] G4 z4 | G3 F F2 B2 | A3 G ^F2 G2 | G2 G(A- A G2 ^F) | %19
w: der da kommt im|Na- men des Her- *|ren.|Ho- si- an- na,|Ho- si- an- na|in der Hö- * * *|
 G4 z4 | G3 F F2 B2 | A3 G F2 G2 | G2 G(A- A G2 ^F/E/ | ^F4) G4 |] %24
w: he,|Ho- si- an- na,|Ho- si- an- na|in der Hö- * * * *|* he!|
V:3
 [Gg]2 ^f3 f f2 g2 | =f2 f2 d4 | d2 A2 cG (B2- | B2 AG A4) | B4 z4 | f3 f g2 g2 | f2 f2 d4 | %7
w: * Ho- si- an- na,|Ho- si- an-|na dem Soh- ne Da-||vids,|Ho- si- an- na,|Ho- si- an-|
 d2 A2 cG (B2- | B2 AG A4) |[M:6/4] B4 f2 f3 f f2 | f4 d2 d4 f2 | g2 f2 f2 (d2 d4) | %12
w: na dem Soh- ne Da-||vids! Ge- lo- bet sei,|der da kommt im|Na- men des Her- *|
 d4 g2 f3 f f2 | f4 d2 d4 f2 | g2 f2 f2 (d2 d4) |[M:4/4] d4 z4 | d3 d c2 f2 | f3 e d2 d2 | %18
w: ren, ge- lo- bet sei,|der da kommt im|Na- men des Her- *|ren.|Ho- si- an- na,|Ho- si- an- na|
 _e2 e(c- cB A2) | G4 z4 | d3 d c2 f2 | f3 e d2 d2 | _e2 e(c- cB A2- | AB A2) G4 |] %24
w: in der Hö- * * *|he,|Ho- si- an- na,|Ho- si- an- na|in der Hö- * * *|* * * he!|
V:4
 [B,,D]2 D3 D D2 G,2 | B,2 F,2 G,4 | D,2 D,2 C,2 B,,2 | F,8 | B,,4 z4 | D,3 D, G,2 G,2 | %6
w: * Ho- si- an- na,|Ho- si- an-|na dem Soh- ne|Da-|vids,|Ho- si- an- na,|
 B,2 F,2 G,4 | D,2 D,2 C,2 B,,2 | F,8 |[M:6/4] B,,4 B,2 B,3 B, B,2 | F,4 G,2 D,4 B,,2 | %11
w: Ho- si- an-|na dem Soh- ne|Da-|vids! Ge- lo- bet sei,|der da kommt im|
 _E,2 B,,2 (F,2 G,2) D,4 | G,4 G,2 B,3 B, B,2 | F,4 G,2 D,4 B,,2 | _E,2 B,,2 (F,2 G,2) D,4 | %15
w: Na- men des _ Her-|ren, ge- lo- bet sei,|der da kommt im|Na- men des _ Her-|
[M:4/4] G,4 z4 | G,3 B, F,2 B,,2 | F,3 C, D,2 G,2 | _E,2 C,2 D,4 | G,4 z4 | G,3 B, F,2 B,,2 | %21
w: ren.|Ho- si- an- na,|Ho- si- an- na|in der Hö-|he,|Ho- si- an- na,|
 F,3 C, D,2 G,2 | _E,2 C,2 D,4- | D,4 G,4 |] %24
w: Ho- si- an- na|in der Hö-|* he!|

